X:1
T:Mack the knife
C:1928 - Kurt Weill / Bertolt Brecht
Z:Copyright © www.realbook.site
L:1/4
M:2/2
I:linebreak $
K:C
V:1 treble nm=" " snm=" "
V:1
 x2 E G ||"C6" A2 A2- | A2 E G |"Dm7" A2 A2- | A2 D F |$"G7" A2 A2- | A2 B G |"C6" A4- | A2 G B |$ %9
"Am7" d2 c2- | c2 B A |"Dm7" c2 D2- | D2 E F |$"G7" A2 A2- | A2 B G |"C6" A4- | A2 z2 |] %17

